X:1425
T:Freut dich, Erd und Sternenzelt
C:anon.
O:Germany
A:B\"ohmen
R:Christmas hymn
Z:Transcribed by Frank Nordberg - http://www.musicaviva.com
F:http://abc.musicaviva.com/tunes/germany/freut-dich-erd-und.abc
M:C|
L:1/4
Q:1/4=200
K:F
FGAB|ccc2|Bcd2|c4|ccBB|
w:Freu dich, Erd und Ster-nen-zelt, hal-le-lu-ja! Got-tes Sohn kam
AAG2|ABG2|F4|AGAB|c2G2|
w:in die Welt, hal-le-lu-ja! Uns zum Heil er-ko-ren,
AGAB|c2G2|A2d2|cAG2|F4|]
w:ward er heut ge-bo-ren, heu-te uns ge-bo-ren.
W:
W:Freu dich, Erd und Sternenzelt,
W:  halleluja!
W:Gottes Sohn kam in die Welt,
W:  hallelulja!
W:Uns zum Heil erkoren,
W:ward er heut geboren,
W:heute uns geboren.
W:
W:
W:  From Musica Viva - http://www.musicaviva.com
W:  the Internet center for free sheet music downloads.


